X: 481
T: George Gubbins Delight
N:"Slow" "collected by F.O'Neill"
N:Irish title: tai.tnea.m seorsi .gobain
B:O'Neill's 481
Z:Transcribed by henrik.norbeck@mailbox.swipnet.se
M:C
L:1/8
K:Am
G/F/ | (EA)AB c2 (Ac) | (B{cB}A)(GB) (dBG).A | (EA)(AB) (c2 d2) | (e^f/g/) (dB) (B{cB}A) A :|
d | (ea)(ag) (e^fg).e | (dBG).B (~AG) E2 | (ea)(ag) (e^f^ga) | (~bagb) a2 (ab) |
(c'ba)g (e^fg).e | (dB)gd (~BG) ~GF | (EA)(AB) (c2 d2) | (e^f/g/) (dB) (~BA) A2 ||


